X:1
T:Sowin' on the Mountain
M:4/4
L:1/8
K:G
 DD ED| G4 G4-| G2 z2 dd BB| G4 G4-| G4| GG Bd| d3- B d4-| d2 z2 ee dB|\
 d3- B d4-| d8-| d2 z2| GG Bd| d3- B d4-| d2 z2 ee dd| d2- c2 c4-|\
 c8-| c8-| c2 z2| d2 cc| B4- G4-| G8| z2 G2 d2_B-A| G8-| G2 z2||
